X:504
T:Road to Durham, The
T:Ride to Durham, The
R:jig
C:Armin Barnet & David Molk
Z:id:hn-jig-504
M:6/8
L:1/8
K:Dmix
FAA ABd | BAG AGE | ~G3 ~B3 | AGA E2D |
F2A ABd | BAG AGE | DED F2A | GEA D2A :|
|: F2A ABc | ded ~B3 | ~G3 B2B | AGA E2D |
F2A ABc | dAd AGE | DF/E/D F2A | GEA D2A :|

